X:182
T:Maud Millar* (reel) 
B:CRE2.212 (gan ainm)
F:file ID: cre.2/182maud_m
M:C
R:reel % A-B-A
Q:180
K:Em
gf|edBA G3A|BGdG BGGd|edBA G3d|e2ed efgf|
edBA G3A|BGdG BGG>d|edBA G3d|e2ed efge||
dega bgag|gede ged2|dega bgag|e2ed efge|
dega bgag|gede g2ga|b2bg a2af|e3d efgf||

%%%

